X:1
T:8 Lieder und Gesänge, Op.58
T:Die Spröde
T:3. Die Spröde
T:Johannes Brahms
T:Aus dem Kalabresischen von Aug. Kopisch
T:8 Lieder und Gesänge, Op.58
T:Creative Commons copyright waiver (CC0 1.0 Universal) 
T:Creative Commons copyright waiver (CC0 1.0 Universal) 
T:Creative Commons copyright waiver (CC0 1.0 Universal) 
C:Johannes Brahms
Z:Aus dem Kalabresischen von August Kopisch
Z:Creative Commons copyright waiver (CC0 1.0 Universal)
Z:
L:1/8
M:2/4
K:A
V:1 treble nm="Singstimme\nVoice"
V:1
 z |: z4 | z4 | z4 | z2 z E | A3/2 c/ e c | A2 =F2 | z E =F =G | A2 E E | (=F>A) (=G>d) | c2 E z | %11
w: ||||Ich|sa- he ei- ne|Tig- rin|im dunk- len|Hai- ne, im|dunk- * len *|Hai- ne,|
 z2 z A | e e ^d A | =d2 c2 | z d F B | c2 c z | z f A d | (e3 B) | c2 z2 :| z4 | z4 | z4 | %22
w: und|doch mit mei- nen|Trä- nen|konnt ich sie|zäh- men,|konnt ich sie|zäh- *|men.||||
 z2 z c ||[M:3/4] e2 z =g f e ||[M:2/4] d2 c2 | z =g f e | d2 c e ||[M:3/4] =f3 =g f _e || %28
w: Und|du, so ei- ne|zar- te|hold- sel- ge|Klei- ne, du|lachst zu mei- nem|
[M:2/4] _e2 d d | =f3 _e | _e2 d2 | z2 =f2 | =e2 z/ A/ B/ =c/ | e3 d | (=c3 B) | A2 z2 | z4 | z4 | %38
w: Seuf- zen und|bit- tern|Grä- men,|du|lachst zu mei- nem|bit- tern|Grä- *|men.|||
 z4 | z2 z |] %40
w: ||

